svg/filter.svg

<svg xmlns="http://www.w3.org/2000/svg" viewBox="0 0 32 32" enable-background="new 0 0 32 32"><path d="M 5 4 L 5 5 L 5 6 L 5 6.34375 L 5.21875 6.625 L 13 16.34375 L 13 26 L 13 28 L 14.59375 26.8125 L 18.59375 23.8125 L 19 23.5 L 19 23 L 19 16.34375 L 26.78125 6.625 L 27 6.34375 L 27 6 L 27 5 L 27 4 L 26 4 L 6 4 L 5 4 z M 7.28125 6 L 24.71875 6 L 17.53125 15 L 14.46875 15 L 7.28125 6 z M 15 17 L 17 17 L 17 22.5 L 15 24 L 15 17 z" color="#000" overflow="visible" enable-background="accumulate"/></svg>

<svg xmlns="http://www.w3.org/2000/svg" viewBox="0 0 32 32"><path d="M5 4v2.344l.22.28 7.78 9.72V28l1.594-1.188 4-3L19 23.5v-7.156l7.78-9.72.22-.28V4H5zm2.28 2h17.44l-7.19 9h-3.06L7.28 6zM15 17h2v5.5L15 24v-7z"/></svg>
